X:348
T: Falscher Sinn (81a), S. 221
N: T0237V
O: Luxemburg
S: Singendes Volk, Esch-Alzette 1937 posth.]
N: 2. Variante aus Straáen, ohne Snger und Jahr,
N: vielleicht 1906
R: Liebeslieder]
M: 4/4
L: 1/8
K: D
DF | A2AdAGGE | F2FFE2
EF | G2F2G2B2 | A4z2
FA | d2ddedcB | B4A2z2 | G2BGF2
Ad | B2AGA2A2 | F4z2

